X: 793
T: The Humors of Tralibane.
C:F. O'Neill.
B:O'Neill's Music of Ireland
N:O'Neill's - 793
Z:Transcribed by Stephen Foy (shf@access.digex.net)
Z:abc 1.6
R:Jig
M:6/8
K:A
g/f/|ecA Ace|dBG GBd|cBA ecA|def {a}gfg|\
ecA Ace|dBG GBd|cBA edB|{c}BAA A2:|
||d|efg efg|(f<a)f ged|efg efg|(b<a)a a2 d|\
efg efg|{g}f>ed Bcd|gfe edB|{c}BAA A2:|


